localPackages/DesignSystem/Sources/DesignSystem/Resources/Assets.xcassets/IconSet/ic-chevron-square-left.imageset/ic-chevron-square-left.svg

<svg width="24" height="24" viewBox="0 0 24 24" fill="none" xmlns="http://www.w3.org/2000/svg">
<g id="ic-chevron-square-left">
<g id="Icon">
<path fill-rule="evenodd" clip-rule="evenodd" d="M12.5303 17.0303C12.2374 17.3232 11.7626 17.3232 11.4697 17.0303L6.96967 12.5303C6.82902 12.3897 6.75 12.1989 6.75 12C6.75 11.8011 6.82902 11.6103 6.96967 11.4697L11.4697 6.96967C11.7626 6.67678 12.2374 6.67678 12.5303 6.96967C12.8232 7.26256 12.8232 7.73744 12.5303 8.03033L8.56066 12L12.5303 15.9697C12.8232 16.2626 12.8232 16.7374 12.5303 17.0303Z" fill="#0F0F0F"/>
<path fill-rule="evenodd" clip-rule="evenodd" d="M19.5 1.5C21.1569 1.5 22.5 2.84315 22.5 4.5V19.5C22.5 21.1569 21.1569 22.5 19.5 22.5H4.5C2.84315 22.5 1.5 21.1569 1.5 19.5V4.5C1.5 2.84315 2.84315 1.5 4.5 1.5H19.5ZM18 3H19.5C20.3284 3 21 3.67157 21 4.5V19.5C21 20.3284 20.3284 21 19.5 21H18V3ZM16.5 21H4.5C3.67157 21 3 20.3284 3 19.5V4.5C3 3.67157 3.67157 3 4.5 3H16.5V21Z" fill="#0F0F0F"/>
</g>
</g>
</svg>

<svg xmlns="http://www.w3.org/2000/svg" width="24" height="24" viewBox="0 0 24 24">
  <g class="ic-chevron-square-left">
    <g class="Icon">
      <path fill-rule="evenodd" d="M12.53 17.03a.75.75 0 0 1-1.06 0l-4.5-4.5a.75.75 0 0 1 0-1.06l4.5-4.5a.75.75 0 1 1 1.06 1.06L8.56 12l3.97 3.97a.75.75 0 0 1 0 1.06Z"/>
      <path fill-rule="evenodd" d="M19.5 1.5a3 3 0 0 1 3 3v15a3 3 0 0 1-3 3h-15a3 3 0 0 1-3-3v-15a3 3 0 0 1 3-3h15ZM18 3h1.5A1.5 1.5 0 0 1 21 4.5v15a1.5 1.5 0 0 1-1.5 1.5H18V3Zm-1.5 18h-12A1.5 1.5 0 0 1 3 19.5v-15A1.5 1.5 0 0 1 4.5 3h12v18Z"/>
    </g>
  </g>
</svg>
